X: 169
T: SINGLE JIG: Merrily Kiss the Quaker
C: C: Trad.; S: Various
C: Set Leaders: Vova, Olya, Anton
Z: Anton Zille ed., Oleg Naumov arr.; Sean Perry at The Session
N: https://thesession.org/members/26966/sets/96724
R: Single Jig
M: 12/8
L: 1/8
Q: 3/8=116
K: Gmaj
|:"G"GAB D2B "(C)"c2A "(D)"BGE|"G"GAB DEG "D"A3 AGE|
"G"GAB D2B "C"c2A "D"BGE|1 "G"GAB "D"DEF "G"G3 G2D:|2 "G"GAB "D"DEF "G"G3 G2A||
|:"G"BGG AGG BGG AGE|"G"GAB DEG "D"A3 AGA|
"G"BGG AGG BGG AGE|1 "C"GAB "D"DEF "G"G3 G2A:|2 "C"GAB "D"DEF "G"G3 GBd||
|:"G"g3 "D"aga "G"bge dBd|"C"gfg gab "D"a3 agf|
"Em"gbg "D"faf "C"e/f/ge dBA|1 "C"GAB "D"DEF "G"G3 GBd:|2 "C"GAB "D"DEF "G"G3 G2D||

